;FLAVOR:Marlin
;TIME:1447
;Filament used: 1.07491m
;Layer height: 0.15
;Generated with Cura_SteamEngine master
M82 ;absolute extrusion mode
G21 ; set units to millimeters
G90 ; use absolute positioning
M82 ; absolute extrusion mode
M104 S200 ; set extruder temp
M140 S60 ; set bed temp
M190 S60 ; wait for bed temp
M109 S200 ; wait for extruder temp
G28 W ; home all without mesh bed level
G80 ; mesh bed leveling
G92 E0.0 ; reset extruder distance position
G1 Y-3.0 F1000.0 ; go outside print area
G1 X60.0 E9.0 F1000.0 ; intro line
G1 X100.0 E21.5 F1000.0 ; intro line
G92 E0.0 ; reset extruder distance position
G92 E0
G1 F2100 E-0.8
;LAYER_COUNT:41
;LAYER:0
M107
G0 F3600 X247.472 Y299.187 Z0.15
;TYPE:SKIRT
G1 F2100 E0
G1 F1800 X247.664 Y299.034 E0.00612
G1 X249.451 Y297.71 E0.0616
G1 X249.65 Y297.573 E0.06763
G1 X251.429 Y296.432 E0.12035
G1 X251.634 Y296.31 E0.1263
G1 X253.527 Y295.266 E0.18023
G1 X253.8 Y295.13 E0.18784
G1 X256.834 Y293.777 E0.2707
G1 X257.176 Y293.645 E0.27985
G1 X260.193 Y292.653 E0.35907
G1 X260.481 Y292.571 E0.36654
G1 X262.655 Y292.052 E0.4223
G1 X262.895 Y292.004 E0.4284
G1 X265.015 Y291.648 E0.48203
G1 X265.255 Y291.616 E0.48806
G1 X267.388 Y291.404 E0.54154
G1 X267.622 Y291.388 E0.54739
G1 X269.737 Y291.316 E0.60018
G1 X269.979 Y291.316 E0.60621
G1 X272.164 Y291.389 E0.66075
G1 X272.404 Y291.405 E0.66675
G1 X274.522 Y291.618 E0.71985
G1 X274.759 Y291.65 E0.72581
G1 X276.904 Y292.011 E0.78007
G1 X277.147 Y292.06 E0.78626
G1 X279.302 Y292.577 E0.84154
G1 X279.536 Y292.642 E0.8476
G1 X281.626 Y293.295 E0.90222
G1 X281.855 Y293.375 E0.90827
G1 X283.853 Y294.151 E0.96174
G1 X284.076 Y294.247 E0.96779
G1 X286.056 Y295.174 E1.02233
G1 X286.274 Y295.284 E1.02842
G1 X288.169 Y296.333 E1.08245
G1 X288.372 Y296.455 E1.08836
G1 X290.158 Y297.603 E1.14132
G1 X290.358 Y297.741 E1.14738
G1 X292.136 Y299.062 E1.20264
G1 X292.327 Y299.214 E1.20872
G1 X293.93 Y300.583 E1.26131
G1 X294.102 Y300.741 E1.26714
G1 X295.655 Y302.252 E1.32119
G1 X295.829 Y302.433 E1.32745
G1 X297.332 Y304.115 E1.38372
G1 X297.488 Y304.301 E1.38977
G1 X298.787 Y305.968 E1.44249
G1 X298.926 Y306.16 E1.4484
G1 X300.143 Y307.954 E1.50248
G1 X300.273 Y308.16 E1.50856
G1 X301.35 Y310.005 E1.56185
G1 X301.465 Y310.218 E1.56789
G1 X302.459 Y312.218 E1.6236
G1 X302.582 Y312.493 E1.63111
G1 X303.746 Y315.429 E1.7099
G1 X303.827 Y315.657 E1.71593
G1 X304.176 Y316.746 E1.74446
G1 X304.227 Y316.921 E1.74901
G1 X304.778 Y318.995 E1.80254
G1 X304.831 Y319.225 E1.80843
G1 X305.235 Y321.28 E1.86067
G1 X305.274 Y321.516 E1.86664
G1 X305.554 Y323.699 E1.92154
G1 X305.577 Y323.942 E1.92763
G1 X305.704 Y326.063 E1.98063
G1 X305.71 Y326.305 E1.98667
G1 X305.693 Y328.558 E2.04287
G1 X305.682 Y328.807 E2.04909
G1 X305.514 Y330.989 E2.10368
G1 X305.488 Y331.231 E2.10975
G1 X305.178 Y333.363 E2.16349
G1 X305.123 Y333.656 E2.17093
G1 X304.397 Y336.797 E2.25135
G1 X304.316 Y337.09 E2.25893
G1 X303.643 Y339.179 E2.31368
G1 X303.56 Y339.408 E2.31976
G1 X302.755 Y341.427 E2.37397
G1 X302.659 Y341.647 E2.37996
G1 X301.733 Y343.584 E2.43352
G1 X301.622 Y343.798 E2.43953
G1 X300.575 Y345.657 E2.49275
G1 X300.452 Y345.858 E2.49863
G1 X299.285 Y347.645 E2.55187
G1 X299.109 Y347.892 E2.55944
G1 X297.109 Y350.455 E2.64054
G1 X296.91 Y350.688 E2.64818
G1 X295.375 Y352.343 E2.70449
G1 X295.204 Y352.515 E2.71054
G1 X293.687 Y353.944 E2.76252
G1 X293.51 Y354.101 E2.76843
G1 X291.837 Y355.481 E2.82252
G1 X291.641 Y355.632 E2.8287
G1 X289.835 Y356.924 E2.88409
G1 X289.632 Y357.059 E2.89017
G1 X287.788 Y358.198 E2.94424
G1 X287.527 Y358.344 E2.9517
G1 X284.636 Y359.813 E3.03259
G1 X284.356 Y359.941 E3.04027
G1 X282.315 Y360.767 E3.09519
G1 X282.089 Y360.85 E3.1012
G1 X280.061 Y361.517 E3.15445
G1 X279.774 Y361.598 E3.16189
G1 X276.614 Y362.354 E3.24294
G1 X276.257 Y362.421 E3.252
G1 X273.112 Y362.845 E3.33117
G1 X272.816 Y362.872 E3.33858
G1 X270.625 Y362.985 E3.39331
G1 X270.383 Y362.99 E3.39935
G1 X268.239 Y362.956 E3.45283
G1 X267.997 Y362.944 E3.45888
G1 X265.824 Y362.763 E3.51327
G1 X265.579 Y362.734 E3.51943
G1 X263.375 Y362.397 E3.57504
G1 X263.133 Y362.351 E3.58119
G1 X260.982 Y361.87 E3.63617
G1 X260.746 Y361.809 E3.64225
G1 X258.689 Y361.2 E3.69577
G1 X258.46 Y361.124 E3.70178
G1 X256.417 Y360.367 E3.75613
G1 X256.139 Y360.25 E3.76366
G1 X253.201 Y358.872 E3.84461
G1 X252.883 Y358.703 E3.85359
G1 X250.145 Y357.066 E3.93317
G1 X249.893 Y356.901 E3.94068
G1 X248.109 Y355.621 E3.99545
G1 X247.917 Y355.473 E4.0015
G1 X246.268 Y354.113 E4.05482
G1 X246.09 Y353.956 E4.06074
G1 X244.522 Y352.478 E4.11449
G1 X244.35 Y352.304 E4.12059
G1 X242.849 Y350.683 E4.1757
G1 X242.69 Y350.5 E4.18175
G1 X241.35 Y348.842 E4.23493
G1 X241.205 Y348.65 E4.24093
G1 X239.944 Y346.857 E4.29561
G1 X239.81 Y346.651 E4.30174
G1 X238.685 Y344.793 E4.35592
G1 X238.569 Y344.586 E4.36184
G1 X237.593 Y342.705 E4.4147
G1 X237.488 Y342.486 E4.42076
G1 X236.615 Y340.484 E4.47524
G1 X236.526 Y340.26 E4.48126
G1 X235.794 Y338.219 E4.53534
G1 X235.704 Y337.931 E4.54287
G1 X234.866 Y334.785 E4.62408
G1 X234.791 Y334.43 E4.63314
G1 X234.285 Y331.286 E4.71257
G1 X234.25 Y330.989 E4.72003
G1 X234.081 Y328.783 E4.77522
G1 X234.07 Y328.537 E4.78137
G1 X234.052 Y326.339 E4.8362
G1 X234.059 Y326.092 E4.84236
G1 X234.192 Y323.899 E4.89717
G1 X234.214 Y323.659 E4.90318
G1 X234.488 Y321.525 E4.95685
G1 X234.539 Y321.228 E4.96436
G1 X235.218 Y318.061 E5.04516
G1 X235.311 Y317.712 E5.05417
G1 X236.296 Y314.655 E5.13429
G1 X236.399 Y314.375 E5.14173
G1 X237.232 Y312.374 E5.1958
G1 X237.335 Y312.15 E5.20195
G1 X238.328 Y310.161 E5.2574
G1 X238.444 Y309.947 E5.26348
G1 X239.515 Y308.122 E5.31626
G1 X239.642 Y307.921 E5.32219
G1 X240.853 Y306.138 E5.37596
G1 X240.993 Y305.946 E5.38188
G1 X242.314 Y304.254 E5.43543
G1 X242.473 Y304.064 E5.44161
G1 X243.983 Y302.382 E5.498
G1 X244.153 Y302.206 E5.5041
G1 X245.654 Y300.747 E5.55632
G1 X245.828 Y300.588 E5.5622
G1 X247.472 Y299.187 E5.61608
G0 F3600 X247.731 Y299.491
G1 F1800 X247.902 Y299.356 E5.62151
G1 X249.689 Y298.032 E5.67699
G1 X249.866 Y297.909 E5.68237
G1 X251.645 Y296.768 E5.73509
G1 X251.828 Y296.66 E5.74039
G1 X253.721 Y295.616 E5.79432
G1 X253.963 Y295.495 E5.80107
G1 X256.997 Y294.142 E5.88393
G1 X257.3 Y294.025 E5.89204
G1 X260.317 Y293.033 E5.97126
G1 X260.574 Y292.96 E5.97792
G1 X262.748 Y292.441 E6.03368
G1 X262.961 Y292.398 E6.0391
G1 X265.081 Y292.042 E6.09272
G1 X265.295 Y292.014 E6.09811
G1 X267.428 Y291.802 E6.15158
G1 X267.635 Y291.788 E6.15675
G1 X269.75 Y291.716 E6.20954
G1 X269.966 Y291.716 E6.21493
G1 X272.151 Y291.789 E6.26946
G1 X272.364 Y291.803 E6.27479
G1 X274.482 Y292.016 E6.32789
G1 X274.693 Y292.044 E6.3332
G1 X276.838 Y292.405 E6.38746
G1 X277.054 Y292.449 E6.39296
G1 X279.209 Y292.966 E6.44824
G1 X279.416 Y293.024 E6.4536
G1 X281.506 Y293.677 E6.50822
G1 X281.711 Y293.748 E6.51363
G1 X283.709 Y294.524 E6.5671
G1 X283.907 Y294.609 E6.57248
G1 X285.887 Y295.536 E6.62701
G1 X286.08 Y295.634 E6.63241
G1 X287.975 Y296.683 E6.68644
G1 X288.155 Y296.791 E6.69168
G1 X289.941 Y297.939 E6.74464
G1 X290.119 Y298.062 E6.75004
G1 X291.897 Y299.383 E6.80529
G1 X292.067 Y299.519 E6.81072
G1 X293.67 Y300.888 E6.86331
G1 X293.824 Y301.027 E6.86848
G1 X295.377 Y302.538 E6.92253
G1 X295.531 Y302.7 E6.92811
G1 X297.034 Y304.382 E6.98438
G1 X297.172 Y304.547 E6.98974
G1 X298.471 Y306.214 E7.04246
G1 X298.595 Y306.385 E7.04773
G1 X299.812 Y308.179 E7.10181
G1 X299.928 Y308.362 E7.10721
G1 X301.005 Y310.207 E7.1605
G1 X301.107 Y310.396 E7.16586
G1 X302.101 Y312.396 E7.22157
G1 X302.21 Y312.641 E7.22826
G1 X303.374 Y315.577 E7.30705
G1 X303.446 Y315.779 E7.3124
G1 X303.795 Y316.868 E7.34092
G1 X303.841 Y317.023 E7.34496
G1 X304.392 Y319.097 E7.39849
G1 X304.439 Y319.302 E7.40373
G1 X304.843 Y321.357 E7.45598
G1 X304.877 Y321.567 E7.46128
G1 X305.157 Y323.75 E7.51618
G1 X305.177 Y323.966 E7.5216
G1 X305.304 Y326.087 E7.5746
G1 X305.31 Y326.302 E7.57996
G1 X305.293 Y328.555 E7.63617
G1 X305.284 Y328.777 E7.64171
G1 X305.116 Y330.959 E7.6963
G1 X305.092 Y331.173 E7.70167
G1 X304.782 Y333.305 E7.75541
G1 X304.733 Y333.566 E7.76204
G1 X304.007 Y336.707 E7.84246
G1 X303.935 Y336.967 E7.84919
G1 X303.262 Y339.056 E7.90393
G1 X303.188 Y339.26 E7.90935
G1 X302.383 Y341.279 E7.96357
G1 X302.298 Y341.474 E7.96887
G1 X301.372 Y343.411 E8.02243
G1 X301.273 Y343.601 E8.02777
G1 X300.226 Y345.46 E8.081
G1 X300.117 Y345.64 E8.08625
G1 X298.95 Y347.427 E8.13949
G1 X298.794 Y347.646 E8.14619
G1 X296.794 Y350.209 E8.22729
G1 X296.617 Y350.416 E8.23408
G1 X295.082 Y352.071 E8.29039
G1 X294.93 Y352.224 E8.29577
G1 X293.413 Y353.653 E8.34776
G1 X293.255 Y353.793 E8.35302
G1 X291.582 Y355.173 E8.40712
G1 X291.408 Y355.307 E8.4126
G1 X289.602 Y356.599 E8.46799
G1 X289.422 Y356.719 E8.47339
G1 X287.578 Y357.858 E8.52746
G1 X287.346 Y357.988 E8.53409
G1 X284.455 Y359.457 E8.61498
G1 X284.205 Y359.57 E8.62183
G1 X282.164 Y360.396 E8.67675
G1 X281.964 Y360.47 E8.68207
G1 X279.936 Y361.137 E8.73533
G1 X279.681 Y361.209 E8.74194
G1 X276.521 Y361.965 E8.82299
G1 X276.204 Y362.024 E8.83103
G1 X273.059 Y362.448 E8.91019
G1 X272.796 Y362.473 E8.91678
G1 X270.605 Y362.586 E8.97151
G1 X270.389 Y362.59 E8.9769
G1 X268.245 Y362.556 E9.03039
G1 X268.03 Y362.545 E9.03576
G1 X265.857 Y362.364 E9.09015
G1 X265.639 Y362.338 E9.09563
G1 X263.435 Y362.001 E9.15125
G1 X263.221 Y361.961 E9.15668
G1 X261.07 Y361.48 E9.21166
G1 X260.86 Y361.425 E9.21707
G1 X258.803 Y360.816 E9.27059
G1 X258.599 Y360.749 E9.27594
G1 X256.556 Y359.992 E9.33029
G1 X256.309 Y359.888 E9.33698
G1 X253.371 Y358.51 E9.41793
G1 X253.088 Y358.36 E9.42592
G1 X250.35 Y356.723 E9.50549
G1 X250.127 Y356.576 E9.51216
G1 X248.343 Y355.296 E9.56693
G1 X248.172 Y355.165 E9.5723
G1 X246.523 Y353.805 E9.62562
G1 X246.364 Y353.665 E9.6309
G1 X244.796 Y352.187 E9.68466
G1 X244.643 Y352.032 E9.69009
G1 X243.142 Y350.411 E9.7452
G1 X243.001 Y350.248 E9.75057
G1 X241.661 Y348.59 E9.80375
G1 X241.533 Y348.42 E9.80906
G1 X240.272 Y346.627 E9.86374
G1 X240.152 Y346.443 E9.86922
G1 X239.027 Y344.585 E9.9234
G1 X238.924 Y344.402 E9.92864
G1 X237.948 Y342.521 E9.9815
G1 X237.855 Y342.326 E9.98689
G1 X236.982 Y340.324 E10.04137
G1 X236.903 Y340.125 E10.04671
G1 X236.171 Y338.084 E10.1008
G1 X236.091 Y337.828 E10.10749
G1 X235.253 Y334.682 E10.18871
G1 X235.186 Y334.366 E10.19677
G1 X234.68 Y331.222 E10.2762
G1 X234.648 Y330.958 E10.28284
G1 X234.479 Y328.752 E10.33803
G1 X234.47 Y328.534 E10.34347
G1 X234.452 Y326.336 E10.3983
G1 X234.458 Y326.116 E10.40379
G1 X234.591 Y323.923 E10.45859
G1 X234.611 Y323.709 E10.46396
G1 X234.885 Y321.575 E10.51763
G1 X234.93 Y321.312 E10.52428
G1 X235.609 Y318.145 E10.60508
G1 X235.692 Y317.835 E10.61308
G1 X236.677 Y314.778 E10.6932
G1 X236.769 Y314.529 E10.69982
G1 X237.602 Y312.528 E10.75389
G1 X237.693 Y312.329 E10.75935
G1 X238.686 Y310.34 E10.8148
G1 X238.789 Y310.149 E10.82022
G1 X239.86 Y308.324 E10.873
G1 X239.973 Y308.146 E10.87826
G1 X241.184 Y306.363 E10.93203
G1 X241.309 Y306.192 E10.93731
G1 X242.63 Y304.5 E10.99086
G1 X242.771 Y304.331 E10.99635
G1 X244.281 Y302.649 E11.05273
G1 X244.432 Y302.492 E11.05817
G1 X245.933 Y301.033 E11.11038
G1 X246.087 Y300.892 E11.11559
G1 X247.731 Y299.491 E11.16947
G1 F2100 E10.36947
;MESH:centeringRing.stl
G0 F3600 X251.616 Y299.776
G0 X252.345 Y300.831
G0 X264.769 Y298.01
G0 X267.897 Y297.632
G0 X271.045 Y297.588
G0 X274.18 Y297.879
G0 X277.268 Y298.502
G0 X280.273 Y299.45
G0 X283.158 Y300.71
G0 X285.894 Y302.272
G0 X288.449 Y304.115
G0 X290.792 Y306.219
G0 X292.9 Y308.56
G0 X294.745 Y311.112
G0 X296.309 Y313.847
G0 X297.332 Y316.181
G0 X297.984 Y317.7
G0 X297.89 Y317.731
;TYPE:WALL-INNER
G1 F2100 E11.16947
G1 F1800 X297.536 Y316.744 E11.19563
G1 X297.151 Y315.769 E11.22178
G1 X296.728 Y314.808 E11.24797
G1 X296.274 Y313.864 E11.2741
G1 X295.786 Y312.935 E11.30028
G1 X295.265 Y312.025 E11.32644
G1 X294.712 Y311.133 E11.35262
G1 X294.127 Y310.263 E11.37877
G1 X293.513 Y309.413 E11.40492
G1 X292.869 Y308.585 E11.43109
G1 X292.194 Y307.78 E11.4573
G1 X291.493 Y307.002 E11.48342
G1 X290.764 Y306.247 E11.5096
G1 X290.008 Y305.518 E11.5358
G1 X289.228 Y304.819 E11.56193
G1 X288.424 Y304.146 E11.58808
G1 X287.596 Y303.502 E11.61425
G1 X286.744 Y302.888 E11.64044
G1 X285.873 Y302.305 E11.66659
G1 X284.98 Y301.753 E11.69278
G1 X284.07 Y301.234 E11.71891
G1 X283.141 Y300.745 E11.7451
G1 X282.195 Y300.292 E11.77126
G1 X281.234 Y299.872 E11.79742
G1 X280.259 Y299.487 E11.82357
G1 X279.271 Y299.135 E11.84974
G1 X278.27 Y298.82 E11.87591
G1 X277.259 Y298.54 E11.90208
G1 X276.238 Y298.296 E11.92827
G1 X275.21 Y298.088 E11.95443
G1 X274.175 Y297.918 E11.9806
G1 X273.135 Y297.784 E12.00675
G1 X272.091 Y297.687 E12.03291
G1 X271.044 Y297.627 E12.05907
G1 X269.994 Y297.605 E12.08527
G1 X268.946 Y297.62 E12.11141
G1 X267.899 Y297.671 E12.13756
G1 X266.853 Y297.761 E12.16375
G1 X265.812 Y297.887 E12.18991
G1 X264.775 Y298.049 E12.21609
G1 X263.746 Y298.249 E12.24224
G1 X262.725 Y298.484 E12.26837
G1 X261.711 Y298.758 E12.29457
G1 X260.709 Y299.065 E12.32071
G1 X259.717 Y299.408 E12.3469
G1 X258.739 Y299.786 E12.37305
G1 X257.774 Y300.199 E12.39924
G1 X256.826 Y300.646 E12.42538
G1 X255.893 Y301.126 E12.45156
G1 X254.978 Y301.638 E12.47771
G1 X254.081 Y302.183 E12.50389
G1 X253.206 Y302.76 E12.53004
G1 X252.35 Y303.367 E12.55621
G1 X251.517 Y304.004 E12.58237
G1 X250.706 Y304.672 E12.60858
G1 X249.922 Y305.365 E12.63468
G1 X249.161 Y306.087 E12.66085
G1 X248.425 Y306.836 E12.68705
G1 X247.719 Y307.611 E12.7132
G1 X247.038 Y308.409 E12.73937
G1 X246.387 Y309.232 E12.76554
G1 X245.766 Y310.077 E12.7917
G1 X245.175 Y310.944 E12.81788
G1 X244.616 Y311.831 E12.84403
G1 X244.088 Y312.737 E12.87019
G1 X243.592 Y313.662 E12.89637
G1 X243.131 Y314.603 E12.92251
G1 X242.701 Y315.56 E12.94868
G1 X242.307 Y316.532 E12.97484
G1 X241.948 Y317.517 E13.001
G1 X241.622 Y318.514 E13.02716
G1 X241.334 Y319.523 E13.05334
G1 X241.081 Y320.542 E13.07953
G1 X240.865 Y321.568 E13.10568
G1 X240.685 Y322.601 E13.13184
G1 X240.542 Y323.64 E13.158
G1 X240.435 Y324.684 E13.18418
G1 X240.366 Y325.731 E13.21035
G1 X240.334 Y326.779 E13.23651
G1 X240.34 Y327.828 E13.26268
G1 X240.382 Y328.876 E13.28884
G1 X240.462 Y329.923 E13.31503
G1 X240.579 Y330.965 E13.34119
G1 X240.732 Y332.003 E13.36736
G1 X240.923 Y333.034 E13.39352
G1 X241.15 Y334.057 E13.41966
G1 X241.413 Y335.073 E13.44584
G1 X241.712 Y336.078 E13.47199
G1 X242.047 Y337.072 E13.49816
G1 X242.415 Y338.054 E13.52432
G1 X242.82 Y339.022 E13.55049
G1 X243.259 Y339.975 E13.57667
G1 X243.73 Y340.911 E13.60281
G1 X244.235 Y341.831 E13.62899
G1 X244.772 Y342.732 E13.65515
G1 X245.34 Y343.614 E13.68132
G1 X245.94 Y344.474 E13.70748
G1 X246.569 Y345.313 E13.73363
G1 X247.228 Y346.129 E13.7598
G1 X247.917 Y346.921 E13.78599
G1 X248.631 Y347.688 E13.81213
G1 X249.373 Y348.43 E13.8383
G1 X250.142 Y349.144 E13.86448
G1 X250.935 Y349.83 E13.89063
G1 X251.752 Y350.489 E13.91682
G1 X252.592 Y351.116 E13.94296
G1 X253.452 Y351.715 E13.96911
G1 X254.334 Y352.284 E13.99529
G1 X255.236 Y352.82 E14.02146
G1 X256.156 Y353.323 E14.04762
G1 X257.094 Y353.794 E14.0738
G1 X258.048 Y354.231 E14.09998
G1 X259.015 Y354.634 E14.12611
G1 X259.997 Y355.002 E14.15227
G1 X260.993 Y355.337 E14.17848
G1 X261.998 Y355.634 E14.20463
G1 X263.015 Y355.896 E14.23082
G1 X264.038 Y356.12 E14.25695
G1 X265.07 Y356.31 E14.28312
G1 X266.108 Y356.462 E14.30929
G1 X267.15 Y356.577 E14.33544
G1 X268.197 Y356.657 E14.36164
G1 X269.244 Y356.697 E14.38777
G1 X270.293 Y356.702 E14.41394
G1 X271.342 Y356.669 E14.44012
G1 X272.388 Y356.598 E14.46627
G1 X273.432 Y356.49 E14.49245
G1 X274.471 Y356.346 E14.51862
G1 X275.504 Y356.164 E14.54479
G1 X276.529 Y355.947 E14.57092
G1 X277.547 Y355.692 E14.5971
G1 X278.555 Y355.402 E14.62326
G1 X279.552 Y355.077 E14.64942
G1 X280.537 Y354.716 E14.67559
G1 X281.509 Y354.321 E14.70176
G1 X282.466 Y353.891 E14.72794
G1 X283.407 Y353.428 E14.7541
G1 X284.331 Y352.931 E14.78027
G1 X285.237 Y352.402 E14.80644
G1 X286.123 Y351.841 E14.8326
G1 X286.989 Y351.248 E14.85878
G1 X287.832 Y350.627 E14.8849
G1 X288.655 Y349.975 E14.91109
G1 X289.453 Y349.294 E14.93726
