;FLAVOR:Marlin
;TIME:7467
;Filament used: 5.30349m
;Layer height: 0.15
;Generated with Cura_SteamEngine master
M82 ;absolute extrusion mode
G21 ; set units to millimeters
G90 ; use absolute positioning
M82 ; absolute extrusion mode
M104 S200 ; set extruder temp
M140 S60 ; set bed temp
M190 S60 ; wait for bed temp
M109 S200 ; wait for extruder temp
G28 W ; home all without mesh bed level
G80 ; mesh bed leveling
G92 E0.0 ; reset extruder distance position
G1 Y-3.0 F1000.0 ; go outside print area
G1 X60.0 E9.0 F1000.0 ; intro line
G1 X100.0 E21.5 F1000.0 ; intro line
G92 E0.0 ; reset extruder distance position
G92 E0
G1 F2100 E-0.8
;LAYER_COUNT:34
;LAYER:0
M107
G0 F3600 X187.939 Y195.166 Z0.15
;TYPE:SKIRT
G1 F2100 E0
G1 F1800 X192.006 Y191.282 E0.14028
G1 X192.167 Y191.138 E0.14567
G1 X196.521 Y187.508 E0.28708
G1 X196.69 Y187.377 E0.29241
G1 X201.215 Y184.091 E0.43191
G1 X201.393 Y183.97 E0.43728
G1 X206.207 Y180.947 E0.57908
G1 X206.345 Y180.865 E0.58308
G1 X208.809 Y179.485 E0.65353
G1 X208.952 Y179.41 E0.65756
G1 X213.957 Y176.93 E0.7969
G1 X214.123 Y176.854 E0.80145
G1 X217.846 Y175.266 E0.90242
G1 X217.998 Y175.205 E0.9065
G1 X222.169 Y173.674 E1.01734
G1 X222.351 Y173.613 E1.02213
G1 X227.805 Y171.974 E1.16419
G1 X228.013 Y171.919 E1.16955
G1 X233.48 Y170.67 E1.30944
G1 X233.66 Y170.635 E1.31402
G1 X237.587 Y169.972 E1.41336
G1 X237.767 Y169.946 E1.4179
G1 X243.37 Y169.325 E1.55852
G1 X243.586 Y169.309 E1.56392
G1 X249.227 Y169.067 E1.70477
G1 X249.441 Y169.065 E1.71011
G1 X255.079 Y169.201 E1.85079
G1 X255.294 Y169.213 E1.85616
G1 X260.925 Y169.729 E1.99722
G1 X261.139 Y169.756 E2.0026
G1 X266.716 Y170.65 E2.14349
G1 X266.927 Y170.691 E2.14885
G1 X272.402 Y171.949 E2.28899
G1 X272.589 Y171.998 E2.29381
G1 X276.963 Y173.286 E2.40755
G1 X277.147 Y173.347 E2.41239
G1 X282.41 Y175.25 E2.55199
G1 X282.609 Y175.329 E2.55733
G1 X287.769 Y177.595 E2.69791
G1 X287.961 Y177.687 E2.70322
G1 X292.925 Y180.274 E2.84286
G1 X293.112 Y180.38 E2.84822
G1 X297.939 Y183.324 E2.98926
G1 X298.119 Y183.442 E2.99463
G1 X302.727 Y186.697 E3.13536
G1 X302.899 Y186.828 E3.14075
G1 X307.312 Y190.414 E3.2826
G1 X307.474 Y190.555 E3.28796
G1 X311.587 Y194.384 E3.42813
G1 X311.739 Y194.535 E3.43348
G1 X315.59 Y198.635 E3.57379
G1 X315.732 Y198.797 E3.57917
G1 X319.336 Y203.192 E3.72095
G1 X319.467 Y203.363 E3.72632
G1 X322.724 Y207.93 E3.86625
G1 X322.843 Y208.109 E3.87161
G1 X325.828 Y212.953 E4.01354
G1 X325.935 Y213.14 E4.01892
G1 X328.555 Y218.111 E4.15909
G1 X328.657 Y218.324 E4.16498
G1 X331.378 Y224.564 E4.33479
G1 X331.458 Y224.765 E4.34019
G1 X332.975 Y229.007 E4.45257
G1 X333.034 Y229.191 E4.45739
G1 X334.6 Y234.57 E4.59714
G1 X334.646 Y234.745 E4.60165
G1 X335.544 Y238.641 E4.70139
G1 X335.577 Y238.801 E4.70546
G1 X336.361 Y243.216 E4.81732
G1 X336.389 Y243.407 E4.82214
G1 X337.041 Y249.044 E4.96369
G1 X337.058 Y249.258 E4.96904
G1 X337.328 Y254.844 E5.10855
G1 X337.331 Y255.059 E5.11391
G1 X337.223 Y260.748 E5.25585
G1 X337.212 Y260.963 E5.26122
G1 X336.725 Y266.582 E5.40191
G1 X336.699 Y266.795 E5.40727
G1 X335.84 Y272.345 E5.54736
G1 X335.807 Y272.524 E5.5519
G1 X334.979 Y276.401 E5.65079
G1 X334.936 Y276.58 E5.65539
G1 X333.434 Y282.053 E5.79696
G1 X333.37 Y282.258 E5.80232
G1 X331.527 Y287.551 E5.94213
G1 X331.45 Y287.751 E5.94747
G1 X329.253 Y292.918 E6.08753
G1 X329.163 Y293.112 E6.09286
G1 X326.605 Y298.163 E6.2341
G1 X326.501 Y298.352 E6.23948
G1 X323.613 Y303.21 E6.38046
G1 X323.526 Y303.347 E6.38451
G1 X321.957 Y305.706 E6.45518
G1 X321.877 Y305.821 E6.45868
G1 X319.226 Y309.451 E6.5708
G1 X319.108 Y309.603 E6.5756
G1 X315.498 Y313.969 E6.71692
G1 X315.355 Y314.131 E6.72231
G1 X311.455 Y318.247 E6.86376
G1 X311.325 Y318.377 E6.86834
G1 X308.439 Y321.092 E6.96718
G1 X308.303 Y321.212 E6.97171
G1 X304.024 Y324.802 E7.11104
G1 X303.855 Y324.935 E7.1164
G1 X299.275 Y328.281 E7.25789
G1 X299.097 Y328.402 E7.26326
G1 X294.332 Y331.415 E7.40389
G1 X294.147 Y331.523 E7.40924
G1 X289.2 Y334.204 E7.5496
G1 X289.008 Y334.3 E7.55495
G1 X283.873 Y336.652 E7.69584
G1 X283.695 Y336.727 E7.70066
G1 X279.525 Y338.341 E7.8122
G1 X279.343 Y338.406 E7.81702
G1 X273.944 Y340.129 E7.95839
G1 X273.737 Y340.187 E7.96376
G1 X268.267 Y341.536 E8.10429
G1 X268.087 Y341.575 E8.10889
G1 X264.184 Y342.302 E8.20792
G1 X264.004 Y342.33 E8.21247
G1 X258.39 Y343.048 E8.35365
G1 X258.175 Y343.068 E8.35904
G1 X252.564 Y343.404 E8.49926
G1 X252.349 Y343.41 E8.50462
G1 X246.656 Y343.368 E8.64664
G1 X246.441 Y343.359 E8.652
G1 X240.843 Y342.939 E8.79204
G1 X240.631 Y342.916 E8.79736
G1 X235.1 Y342.129 E8.93672
G1 X234.889 Y342.092 E8.94206
G1 X229.359 Y340.922 E9.08306
G1 X229.171 Y340.876 E9.08789
G1 X224.813 Y339.675 E9.20066
G1 X224.627 Y339.618 E9.20551
G1 X219.274 Y337.787 E9.34663
G1 X219.073 Y337.71 E9.352
G1 X213.884 Y335.536 E9.49235
G1 X213.689 Y335.447 E9.49769
G1 X208.617 Y332.909 E9.63917
G1 X208.428 Y332.806 E9.64454
G1 X203.572 Y329.952 E9.78504
G1 X203.39 Y329.837 E9.79042
G1 X198.718 Y326.651 E9.93148
G1 X198.545 Y326.524 E9.93683
G1 X194.128 Y323.057 E10.0769
G1 X193.963 Y322.918 E10.08228
G1 X189.764 Y319.138 E10.22322
G1 X189.632 Y319.012 E10.22777
G1 X186.841 Y316.195 E10.32669
G1 X186.731 Y316.079 E10.33068
G1 X183.738 Y312.739 E10.44255
G1 X183.613 Y312.59 E10.4474
G1 X180.081 Y308.133 E10.58926
G1 X179.952 Y307.959 E10.59467
G1 X176.757 Y303.313 E10.73532
G1 X176.642 Y303.133 E10.74065
G1 X173.779 Y298.309 E10.88058
G1 X173.676 Y298.12 E10.88595
G1 X171.12 Y293.067 E11.02721
G1 X171.029 Y292.873 E11.03255
G1 X168.822 Y287.671 E11.17351
G1 X168.755 Y287.499 E11.17812
G1 X167.413 Y283.747 E11.27752
G1 X167.357 Y283.574 E11.28205
G1 X165.776 Y278.213 E11.42148
G1 X165.727 Y278.027 E11.42628
G1 X164.711 Y273.622 E11.53904
G1 X164.678 Y273.462 E11.54312
G1 X163.98 Y269.529 E11.64276
G1 X163.953 Y269.349 E11.6473
G1 X163.291 Y263.796 E11.7868
G1 X163.273 Y263.583 E11.79213
G1 X162.98 Y257.947 E11.93291
G1 X162.976 Y257.731 E11.9383
G1 X163.064 Y252.063 E12.07971
G1 X163.075 Y251.847 E12.0851
G1 X163.546 Y246.191 E12.22668
G1 X163.571 Y245.978 E12.23203
G1 X164.41 Y240.437 E12.37183
G1 X164.444 Y240.249 E12.37659
G1 X165.378 Y235.868 E12.48833
G1 X165.425 Y235.679 E12.49319
G1 X166.938 Y230.227 E12.63433
G1 X167.002 Y230.022 E12.63969
G1 X168.871 Y224.704 E12.7803
G1 X168.949 Y224.504 E12.78566
G1 X171.189 Y219.282 E12.9274
G1 X171.281 Y219.086 E12.9328
G1 X173.847 Y214.068 E13.07339
G1 X173.951 Y213.88 E13.07875
G1 X176.863 Y209.022 E13.22004
G1 X176.98 Y208.842 E13.22539
G1 X180.17 Y204.249 E13.36489
G1 X180.312 Y204.059 E13.37081
G1 X184.619 Y198.744 E13.54146
G1 X184.76 Y198.582 E13.54681
G1 X187.804 Y195.303 E13.65842
G1 X187.939 Y195.166 E13.66322
G1 F2100 E12.86322
;MESH:finHolder.stl
G0 F3600 X193.127 Y193.671
G0 X194.007 Y194.605
G0 X213.462 Y184.441
G0 X215.912 Y183.24
G0 X218.401 Y182.124
G0 X220.926 Y181.093
G0 X223.484 Y180.147
G0 X226.074 Y179.289
G0 X228.69 Y178.518
G0 X231.331 Y177.837
G0 X233.993 Y177.245
G0 X236.675 Y176.745
G0 X237.439 Y176.629
G0 X242.791 Y175.905
G0 X242.726 Y175.98
;TYPE:WALL-INNER
G1 F2100 E13.66322
G1 F1800 X242.509 Y176.005 E13.66867
G1 X239.376 Y176.374 E13.74736
G1 X236.681 Y176.784 E13.81536
G1 X234.001 Y177.284 E13.88337
G1 X231.34 Y177.875 E13.95136
G1 X228.7 Y178.556 E14.01938
G1 X226.085 Y179.327 E14.08738
G1 X223.497 Y180.184 E14.15539
G1 X220.94 Y181.13 E14.2234
G1 X218.416 Y182.16 E14.2914
G1 X215.928 Y183.276 E14.35942
G1 X213.48 Y184.476 E14.42743
G1 X211.074 Y185.756 E14.49541
G1 X208.712 Y187.118 E14.56343
G1 X206.398 Y188.559 E14.63143
G1 X204.135 Y190.078 E14.69942
G1 X201.922 Y191.672 E14.76745
G1 X199.766 Y193.34 E14.83545
G1 X197.667 Y195.079 E14.90344
G1 X195.629 Y196.89 E14.97145
G1 X193.653 Y198.768 E15.03945
G1 X191.741 Y200.711 E15.10745
G1 X189.895 Y202.718 E15.17547
G1 X188.12 Y204.787 E15.24348
G1 X186.416 Y206.914 E15.31146
G1 X184.784 Y209.098 E15.37947
G1 X183.226 Y211.336 E15.4475
G1 X181.744 Y213.624 E15.5155
G1 X180.342 Y215.962 E15.5835
G1 X179.02 Y218.346 E15.6515
G1 X177.779 Y220.773 E15.7195
G1 X176.621 Y223.241 E15.7875
G1 X175.547 Y225.747 E15.85551
G1 X174.557 Y228.287 E15.92352
G1 X173.655 Y230.86 E15.99153
G1 X172.84 Y233.461 E16.05952
G1 X172.114 Y236.089 E16.12753
G1 X171.477 Y238.74 E16.19555
G1 X170.929 Y241.41 E16.26354
G1 X170.473 Y244.098 E16.33155
G1 X170.107 Y246.8 E16.39957
G1 X169.834 Y249.512 E16.46756
G1 X169.623 Y252.66 E16.54626
G1 X169.609 Y252.878 E16.55171
G1 X169.827 Y252.873 E16.55515
G1 X214.014 Y251.76 E17.65775
G1 X214.391 Y249.461 E17.71586
G1 X214.775 Y247.679 E17.76133
G1 X215.24 Y245.948 E17.80605
G1 X215.799 Y244.214 E17.85149
G1 X216.438 Y242.527 E17.89649
G1 X217.167 Y240.857 E17.94195
G1 X217.969 Y239.243 E17.9869
G1 X218.855 Y237.662 E18.03211
G1 X219.826 Y236.119 E18.07759
G1 X220.865 Y234.634 E18.1228
G1 X221.977 Y233.204 E18.16799
G1 X223.146 Y231.844 E18.21272
G1 X224.402 Y230.523 E18.25819
G1 X225.729 Y229.259 E18.30391
G1 X227.08 Y228.096 E18.34838
G1 X228.516 Y226.979 E18.39376
G1 X230.019 Y225.925 E18.43955
G1 X231.538 Y224.969 E18.48432
G1 X233.125 Y224.078 E18.52972
G1 X234.738 Y223.274 E18.57468
G1 X236.408 Y222.544 E18.62015
G1 X238.098 Y221.904 E18.66523
G1 X239.832 Y221.343 E18.71069
G1 X241.57 Y220.876 E18.75558
G1 X243.846 Y220.383 E18.81367
G1 X242.731 Y176.198 E19.91622
G1 X242.726 Y175.98 E19.91965
G0 F3600 X242.791 Y175.905
G0 X239.371 Y176.335
G0 X236.675 Y176.745
G0 X233.993 Y177.245
G0 X231.331 Y177.837
G0 X228.69 Y178.518
G0 X226.074 Y179.289
G0 X223.484 Y180.147
G0 X220.926 Y181.093
G0 X218.401 Y182.124
G0 X215.912 Y183.24
G0 X213.462 Y184.441
G0 X211.055 Y185.722
G0 X208.692 Y187.084
G0 X206.377 Y188.526
G0 X204.113 Y190.046
G0 X201.899 Y191.64
G0 X199.741 Y193.309
G0 X197.641 Y195.049
G0 X195.602 Y196.861
G0 X193.625 Y198.74
G0 X191.713 Y200.684
G0 X189.866 Y202.692
G0 X188.09 Y204.762
G0 X186.385 Y206.89
G0 X184.752 Y209.075
G0 X183.193 Y211.314
G0 X181.711 Y213.603
G0 X180.308 Y215.943
G0 X178.985 Y218.328
G0 X177.744 Y220.756
G0 X176.585 Y223.225
G0 X175.51 Y225.732
G0 X174.52 Y228.274
G0 X173.618 Y230.848
G0 X172.802 Y233.45
G0 X172.076 Y236.08
G0 X171.438 Y238.732
G0 X170.89 Y241.403
G0 X170.434 Y244.092
G0 X170.068 Y246.796
G0 X169.795 Y249.509
G0 X169.581 Y252.905
G0 X170.606 Y261.926
G0 X170.674 Y261.854
G1 F1800 X170.873 Y261.849 E19.92462
G1 X215.725 Y260.718 E21.04381
G1 X215.897 Y261.95 E21.07484
G1 X216.238 Y263.711 E21.11959
G1 X216.668 Y265.452 E21.16432
G1 X217.187 Y267.169 E21.20907
G1 X217.796 Y268.856 E21.25381
G1 X218.49 Y270.509 E21.29853
G1 X219.268 Y272.125 E21.34327
G1 X220.129 Y273.7 E21.38804
G1 X221.07 Y275.226 E21.43276
G1 X222.089 Y276.703 E21.47753
G1 X223.182 Y278.124 E21.52225
G1 X224.348 Y279.488 E21.56701
G1 X225.581 Y280.789 E21.61172
G1 X226.882 Y282.025 E21.65649
G1 X228.243 Y283.191 E21.70119
G1 X229.664 Y284.288 E21.74597
G1 X231.139 Y285.307 E21.79069
G1 X232.664 Y286.251 E21.83543
G1 X234.237 Y287.114 E21.88019
G1 X235.852 Y287.894 E21.92493
G1 X237.504 Y288.59 E21.96965
G1 X239.192 Y289.201 E22.01443
G1 X240.908 Y289.723 E22.05917
G1 X242.649 Y290.155 E22.10392
G1 X244.409 Y290.497 E22.14864
G1 X246.184 Y290.748 E22.19336
G1 X247.422 Y290.858 E22.22436
G1 X248.558 Y335.908 E23.3485
G1 X255.557 Y335.732 E23.52314
G1 X255.756 Y335.727 E23.52811
G1 X255.751 Y335.528 E23.53132
G1 X254.62 Y290.676 E24.65051
G1 X255.852 Y290.504 E24.68154
G1 X257.612 Y290.164 E24.72626
G1 X259.354 Y289.734 E24.77102
G1 X261.071 Y289.214 E24.81577
G1 X262.758 Y288.606 E24.8605
G1 X264.411 Y287.912 E24.90522
G1 X266.027 Y287.134 E24.94996
G1 X267.601 Y286.273 E24.99472
G1 X269.128 Y285.332 E25.03946
G1 X270.605 Y284.313 E25.08422
G1 X272.026 Y283.219 E25.12896
G1 X273.39 Y282.054 E25.1737
G1 X274.69 Y280.82 E25.21841
G1 X275.926 Y279.52 E25.26316
G1 X277.093 Y278.157 E25.30792
G1 X278.189 Y276.737 E25.35267
G1 X279.209 Y275.263 E25.39738
G1 X280.153 Y273.738 E25.44212
G1 X281.016 Y272.164 E25.4869
G1 X281.796 Y270.549 E25.53164
G1 X282.492 Y268.897 E25.57636
G1 X283.102 Y267.209 E25.62113
G1 X283.624 Y265.493 E25.66587
G1 X284.056 Y263.753 E25.71059
G1 X284.399 Y261.992 E25.75535
G1 X284.65 Y260.217 E25.80006
G1 X284.759 Y258.979 E25.83107
G1 X329.81 Y257.843 E26.95522
G1 X329.634 Y250.844 E27.12987
G1 X329.629 Y250.645 E27.13484
G1 X329.43 Y250.65 E27.13805
G1 X284.578 Y251.781 E28.25724
G1 X284.406 Y250.55 E28.28825
G1 X284.066 Y248.789 E28.33299
G1 X283.636 Y247.048 E28.37772
G1 X283.116 Y245.331 E28.42247
G1 X282.508 Y243.644 E28.46721
G1 X281.813 Y241.99 E28.51196
G1 X281.035 Y240.374 E28.5567
G1 X280.174 Y238.8 E28.60145
G1 X279.234 Y237.274 E28.64616
G1 X278.215 Y235.797 E28.69092
G1 X277.121 Y234.376 E28.73566
G1 X275.956 Y233.012 E28.78041
G1 X274.722 Y231.711 E28.82514
G1 X273.421 Y230.475 E28.8699
G1 X272.06 Y229.308 E28.91462
G1 X270.639 Y228.212 E28.95939
G1 X269.165 Y227.192 E29.0041
G1 X267.638 Y226.249 E29.04887
G1 X266.066 Y225.386 E29.09361
G1 X264.451 Y224.606 E29.13834
G1 X262.799 Y223.909 E29.18307
G1 X261.111 Y223.299 E29.22784
G1 X259.395 Y222.777 E29.27259
G1 X257.654 Y222.345 E29.31733
G1 X255.894 Y222.003 E29.36206
G1 X254.119 Y221.751 E29.40678
G1 X252.881 Y221.642 E29.43778
G1 X251.75 Y176.79 E30.55697
G1 X251.745 Y176.591 E30.56194
G1 X251.546 Y176.596 E30.56515
G1 X244.547 Y176.773 E30.7398
G1 X245.683 Y221.823 E31.86393
G1 X244.451 Y221.996 E31.89497
G1 X242.691 Y222.336 E31.93968
G1 X240.95 Y222.766 E31.98442
G1 X239.233 Y223.286 E32.02917
G1 X237.545 Y223.894 E32.07392
G1 X235.892 Y224.588 E32.11864
G1 X234.276 Y225.366 E32.16338
G1 X232.702 Y226.227 E32.20814
G1 X231.175 Y227.168 E32.25288
G1 X229.699 Y228.187 E32.29762
G1 X228.277 Y229.28 E32.34236
G1 X226.914 Y230.446 E32.38711
G1 X225.613 Y231.68 E32.43184
G1 X224.377 Y232.98 E32.47658
G1 X223.21 Y234.341 E32.5213
G1 X222.114 Y235.762 E32.56607
G1 X221.094 Y237.237 E32.6108
G1 X220.15 Y238.762 E32.65554
G1 X219.287 Y240.335 E32.7003
G1 X218.507 Y241.95 E32.74504
G1 X217.811 Y243.603 E32.78978
G1 X217.201 Y245.29 E32.83453
G1 X216.679 Y247.007 E32.8793
G1 X216.247 Y248.747 E32.92402
G1 X215.904 Y250.507 E32.96875
G1 X215.653 Y252.283 E33.01349
G1 X215.544 Y253.52 E33.04447
G1 X170.493 Y254.656 E34.16862
G1 X170.669 Y261.655 E34.34327
G1 X170.674 Y261.854 E34.34648
G0 F3600 X170.606 Y261.926
G0 X169.805 Y263.61
G0 X169.88 Y263.675
G1 F1800 X169.905 Y263.892 E34.35193
G1 X170.276 Y267.026 E34.43066
G1 X170.686 Y269.721 E34.49866
G1 X171.186 Y272.4 E34.56664
G1 X171.777 Y275.062 E34.63466
G1 X172.458 Y277.701 E34.70265
G1 X173.228 Y280.317 E34.77067
G1 X174.086 Y282.904 E34.83866
G1 X175.032 Y285.461 E34.90667
G1 X176.062 Y287.985 E34.97467
G1 X177.178 Y290.473 E35.04269
G1 X178.377 Y292.921 E35.11069
G1 X179.658 Y295.328 E35.17871
G1 X181.02 Y297.69 E35.24672
G1 X182.461 Y300.004 E35.31472
G1 X183.98 Y302.267 E35.38271
G1 X185.573 Y304.479 E35.45071
G1 X187.242 Y306.635 E35.51872
G1 X188.981 Y308.733 E35.5867
G1 X190.791 Y310.773 E35.65473
G1 X192.669 Y312.748 E35.72271
G1 X194.612 Y314.661 E35.79073
G1 X196.62 Y316.506 E35.85875
G1 X198.689 Y318.282 E35.92677
G1 X200.816 Y319.986 E35.99476
G1 X203 Y321.618 E36.06277
G1 X205.238 Y323.175 E36.13077
G1 X207.526 Y324.657 E36.19878
G1 X209.864 Y326.058 E36.26677
G1 X212.248 Y327.382 E36.33479
G1 X214.675 Y328.623 E36.40279
G1 X217.143 Y329.78 E36.47078
G1 X219.649 Y330.855 E36.5388
G1 X222.189 Y331.844 E36.6068
G1 X224.762 Y332.747 E36.67482
G1 X227.363 Y333.562 E36.74281
G1 X229.991 Y334.288 E36.81082
G1 X232.642 Y334.925 E36.87884
G1 X235.312 Y335.472 E36.94682
G1 X238 Y335.928 E37.01483
G1 X240.702 Y336.294 E37.08285
G1 X243.414 Y336.568 E37.15085
G1 X246.562 Y336.778 E37.22955
G1 X246.78 Y336.792 E37.235
G1 X246.775 Y336.574 E37.23843
G1 X245.662 Y292.388 E38.34101
G1 X243.362 Y292.01 E38.39915
G1 X241.587 Y291.627 E38.44445
G1 X239.85 Y291.162 E38.4893
G1 X238.118 Y290.603 E38.5347
G1 X236.426 Y289.963 E38.57983
G1 X234.757 Y289.234 E38.62526
G1 X233.144 Y288.433 E38.67018
G1 X231.554 Y287.54 E38.71567
G1 X230.021 Y286.576 E38.76085
G1 X228.533 Y285.534 E38.80616
G1 X227.106 Y284.425 E38.85124
G1 X225.744 Y283.253 E38.89607
